src/pos-icons/text-box-remove.svg

<svg height="24" viewBox="0 0 24 24" width="24" xmlns="http://www.w3.org/2000/svg"><path d="m14.46 15.88 1.42-1.42 2.12 2.13 2.12-2.13 1.42 1.42-2.13 2.12 2.13 2.12-1.42 1.42-2.12-2.13-2.12 2.13-1.42-1.42 2.13-2.12zm-2.46 1.12v-2h-5v2zm5-6h-10v2h7.69c-1.62 1.07-2.69 2.91-2.69 5 0 1.09.29 2.12.8 3h-7.8c-1.11 0-2-.9-2-2v-14c0-1.11.89-2 2-2h14a2 2 0 0 1 2 2v7.8c-.88-.51-1.91-.8-3-.8l-1 .08zm0-2v-2h-10v2z"/></svg>

<?xml version="1.0" encoding="UTF-8"?><!DOCTYPE svg PUBLIC "-//W3C//DTD SVG 1.1//EN" "http://www.w3.org/Graphics/SVG/1.1/DTD/svg11.dtd"><svg xmlns="http://www.w3.org/2000/svg" xmlns:xlink="http://www.w3.org/1999/xlink" version="1.1" id="mdi-text-box-remove" width="24" height="24" viewBox="0 0 24 24"><path d="M14.46,15.88L15.88,14.46L18,16.59L20.12,14.46L21.54,15.88L19.41,18L21.54,20.12L20.12,21.54L18,19.41L15.88,21.54L14.46,20.12L16.59,18L14.46,15.88M12,17V15H7V17H12M17,11H7V13H14.69C13.07,14.07 12,15.91 12,18C12,19.09 12.29,20.12 12.8,21H5C3.89,21 3,20.1 3,19V5C3,3.89 3.89,3 5,3H19A2,2 0 0,1 21,5V12.8C20.12,12.29 19.09,12 18,12L17,12.08V11M17,9V7H7V9H17Z" /></svg>
